breeze-extra-gnome/status/22/cisco-tray-reconnecting.svg

<?xml version="1.0" encoding="UTF-8" standalone="no"?>
<svg
   xmlns:dc="http://purl.org/dc/elements/1.1/"
   xmlns:cc="http://creativecommons.org/ns#"
   xmlns:rdf="http://www.w3.org/1999/02/22-rdf-syntax-ns#"
   xmlns:svg="http://www.w3.org/2000/svg"
   xmlns="http://www.w3.org/2000/svg"
   xmlns:sodipodi="http://sodipodi.sourceforge.net/DTD/sodipodi-0.dtd"
   xmlns:inkscape="http://www.inkscape.org/namespaces/inkscape"
   id="svg2"
   width="22"
   height="22"
   version="1.1"
   sodipodi:docname="cisco-tray-reconnecting.svg"
   inkscape:version="0.92.3 (2405546, 2018-03-11)">
  <metadata
     id="metadata8">
    <rdf:RDF>
      <cc:Work
         rdf:about="">
        <dc:format>image/svg+xml</dc:format>
        <dc:type
           rdf:resource="http://purl.org/dc/dcmitype/StillImage" />
        <dc:title></dc:title>
      </cc:Work>
    </rdf:RDF>
  </metadata>
  <sodipodi:namedview
     pagecolor="#ffffff"
     bordercolor="#666666"
     borderopacity="1"
     objecttolerance="10"
     gridtolerance="10"
     guidetolerance="10"
     inkscape:pageopacity="0"
     inkscape:pageshadow="2"
     inkscape:window-width="1920"
     inkscape:window-height="1020"
     id="namedview6"
     showgrid="false"
     inkscape:zoom="10.727273"
     inkscape:cx="11"
     inkscape:cy="11"
     inkscape:window-x="0"
     inkscape:window-y="30"
     inkscape:window-maximized="1"
     inkscape:current-layer="svg2" />
  <defs
     id="defs4">
    <style
       id="current-color-scheme"
       type="text/css">
   .ColorScheme-Text { color:#cecfce; } .ColorScheme-Highlight { color:#3daee9; }
  </style>
  </defs>
  <path
     id="path4"
     style="fill:currentColor;fill-opacity:1"
     class="ColorScheme-Text"
     d="m 10.999999,3.0000002 c -2.990275,0 -5.581928,1.6269634 -6.955078,4.0449219 1.165789,-0.6620476 2.513353,-1.0449219 3.955078,-1.0449219 0.524759,0 1.037157,0.052885 1.533203,0.1484375 0.0018,-0.00466 0.0041,-0.00902 0.0059,-0.013672 0.109049,-0.2835808 0.233686,-0.5574434 0.373047,-0.8242187 0.0129,-0.024874 0.02592,-0.049498 0.03906,-0.074219 0.127806,-0.238484 0.267455,-0.4682357 0.417968,-0.6914062 0.02988,-0.044688 0.05714,-0.090725 0.08789,-0.1347657 0.151973,-0.215866 0.314283,-0.4236251 0.486327,-0.6230465 0.02804,-0.032693 0.05347,-0.067383 0.08203,-0.099609 0.204504,-0.2295139 0.419108,-0.4495692 0.648438,-0.6542969 -0.222608,-0.018441 -0.446301,-0.033203 -0.673828,-0.033203 z m 3.226562,0.6777344 c -0.289387,0.1504875 -0.560133,0.3292648 -0.818359,0.5234375 -0.06417,0.047973 -0.123414,0.1018974 -0.185547,0.1523437 -0.214183,0.1751328 -0.419783,0.3614804 -0.607422,0.5644532 -0.02986,0.032021 -0.06068,0.06303 -0.08984,0.095703 -0.457517,0.5172888 -0.829448,1.1116662 -1.089843,1.765625 2.700792,1.2819542 4.564453,4.021817 4.564453,7.220703 0,0.30612 -0.02702,0.605553 -0.06055,0.902344 0.0032,5.59e-4 0.0066,-5.54e-4 0.0098,0 0.341459,0.06003 0.691543,0.09766 1.05075,0.09766 0.331389,0 0.654241,-0.03462 0.970703,-0.08594 0.650181,-1.156339 1.029297,-2.487053 1.029297,-3.91406 0,-3.2816681 -1.958743,-6.0857174 -4.773438,-7.3222655 z M 7.999999,8.0000002 c -2.079471,0 -3.90669,1.0464656 -4.982422,2.6445318 -0.0052,0.118709 -0.01758,0.235438 -0.01758,0.355468 0,4.432 3.568,8 8,8 0.119372,0 0.23545,-0.01245 0.353515,-0.01758 l 0.002,0 c 0.992801,-0.668301 1.77039,-1.627184 2.218751,-2.75586 -0.0013,-6.23e-4 -0.0026,-0.0013 -0.0039,-0.002 -0.324164,-0.153249 -0.633417,-0.329753 -0.931641,-0.523437 -0.03237,-0.021 -0.06366,-0.043 -0.0957,-0.06445 -0.285849,-0.191584 -0.560431,-0.397127 -0.818359,-0.623047 -0.0031,-0.0027 -0.0066,-0.0051 -0.0098,-0.0078 -0.261357,-0.229614 -0.505114,-0.478529 -0.734374,-0.740201 -0.03115,-0.0355 -0.06127,-0.07137 -0.0918,-0.107422 -0.209976,-0.248385 -0.407211,-0.506126 -0.585938,-0.779297 -0.01292,-0.01971 -0.02632,-0.03876 -0.03906,-0.05859 C 10.082524,13.037986 9.92244,12.740936 9.777363,12.435551 9.749413,12.376821 9.723833,12.317336 9.697283,12.257817 9.566056,11.963141 9.446964,11.662088 9.35158,11.349614 9.34508,11.328474 9.33639,11.308334 9.3301,11.287114 9.23466,10.96482 9.166021,10.631176 9.11135,10.292973 9.09853,10.213803 9.08668,10.134646 9.07619,10.054692 9.03091,9.7090168 9.00002,9.3584868 9.00002,9.0000038 9.00002,8.6943518 9.01756,8.3940213 9.0508,8.0976604 8.709296,8.0377224 8.359216,8.0000044 8.000019,8.0000044 Z m 3.013672,0.8124996 c -0.002,0.06327 -0.01367,0.123738 -0.01367,0.1875 0,0.248781 0.01965,0.491853 0.04883,0.732422 0.0089,0.07358 0.02169,0.146032 0.0332,0.21875 0.02793,0.1757202 0.0627,0.3493752 0.105469,0.5195322 0.01772,0.07068 0.0345,0.141288 0.05469,0.210937 0.0659,0.226739 0.141381,0.449468 0.232421,0.664063 0.0966,0.2277 0.209115,0.446117 0.332032,0.658203 0.01642,0.02842 0.03391,0.05587 0.05078,0.08398 0.115562,0.192026 0.241224,0.377564 0.376953,0.554687 0.01328,0.01738 0.02559,0.03551 0.03906,0.05273 0.306563,0.391104 0.659423,0.742731 1.052735,1.046875 0.01616,0.01252 0.03254,0.02475 0.04883,0.03711 0.191827,0.14523 0.392608,0.28057 0.601562,0.402344 0.0041,0.0024 0.0076,0.0055 0.01172,0.0078 0.002,-0.06364 0.01172,-0.125291 0.01172,-0.189441 0,-2.222828 -1.19944,-4.1506872 -2.986328,-5.1875002 z m 4.453125,8.0312502 c -0.146406,0.383952 -0.311226,0.758284 -0.511719,1.111328 0.490144,-0.27835 0.937295,-0.618573 1.355469,-0.990234 -0.0027,-2.29e-4 -0.0051,-0.0017 -0.0078,-0.002 -0.283722,-0.02435 -0.561605,-0.06623 -0.835937,-0.119141 z" />
  <path
     style="fill:#f47750;fill-opacity:1"
     d="m 16.424814,12.001953 a 1.4077754,1.5301004 0 0 0 -1.144531,0.763672 l -1.046875,1.96875 -1.044922,1.970703 A 1.4077754,1.5301004 0 0 0 14.405283,19 h 2.09375 2.091797 a 1.4077754,1.5301004 0 0 0 1.21875,-2.294922 l -1.046875,-1.970703 -1.044922,-1.96875 a 1.4077754,1.5301004 0 0 0 -1.152344,-0.763672 1.4077754,1.5301004 0 0 0 -0.140625,0 z"
     id="path819"
     inkscape:connector-curvature="0" />
  <path
     style="fill:#ffffff;fill-opacity:1"
     d="m 15.999033,13 v 3 h 1 v -3 z m 0,4 v 1 h 1 v -1 z"
     id="path817"
     inkscape:connector-curvature="0" />
</svg>

<?xml version="1.0" encoding="UTF-8" standalone="no"?>
<svg xmlns="http://www.w3.org/2000/svg" height="22" width="22" version="1.1" id="svg2">
 <defs id="defs4">
  <style type="text/css" id="current-color-scheme">
   .ColorScheme-Text { color:#cbcbcb; } .ColorScheme-Highlight { color:#3daee9; }
  </style>
 </defs>
 <path style="fill:currentColor;fill-opacity:1" class="ColorScheme-Text" d="M 11 3 C 8.009725 3 5.4180719 4.6269634 4.0449219 7.0449219 C 5.2107109 6.3828743 6.558275 6 8 6 C 8.524759 6 9.0371571 6.052885 9.5332031 6.1484375 C 9.5350031 6.1437775 9.5372625 6.1394176 9.5390625 6.1347656 C 9.6481115 5.8511848 9.7727484 5.5773222 9.9121094 5.3105469 C 9.9250094 5.2856729 9.9380319 5.2610491 9.9511719 5.2363281 C 10.078978 4.9978441 10.218628 4.7680924 10.369141 4.5449219 C 10.399021 4.5002339 10.426281 4.454197 10.457031 4.4101562 C 10.609004 4.1942902 10.771315 3.9865308 10.943359 3.7871094 C 10.971399 3.7544164 10.996831 3.719726 11.025391 3.6875 C 11.229896 3.457986 11.444498 3.2379308 11.673828 3.0332031 C 11.45122 3.0147621 11.227527 3 11 3 z M 14.226562 3.6777344 C 13.937176 3.8282219 13.666429 4.0069992 13.408203 4.2011719 C 13.344033 4.2491449 13.284789 4.3030693 13.222656 4.3535156 C 13.008473 4.5286484 12.802873 4.7149958 12.615234 4.9179688 C 12.585374 4.9499898 12.554551 4.9809989 12.525391 5.0136719 C 12.067874 5.5309607 11.695942 6.1253381 11.435547 6.7792969 C 13.317326 7.6724994 14.774324 9.2830553 15.496094 11.253906 C 15.767003 11.121189 16.055356 11.022003 16.367188 11.003906 L 16.371094 11.003906 C 16.454084 10.999406 16.538104 10.999406 16.621094 11.003906 C 17.466123 11.049106 18.210529 11.560276 18.601562 12.296875 L 18.804688 12.679688 C 18.922432 12.137315 19 11.579339 19 11 C 19 7.7183319 17.041258 4.9142825 14.226562 3.6777344 z M 8 8 C 5.920529 8 4.0933101 9.0464652 3.0175781 10.644531 C 3.0123781 10.76324 3 10.87997 3 11 C 3 15.432 6.568 19 11 19 C 11.119372 19 11.235451 18.987552 11.353516 18.982422 L 11.355469 18.982422 C 11.647475 18.785859 11.914146 18.556265 12.166016 18.3125 C 11.940951 17.65545 11.950955 16.906189 12.306641 16.236328 L 12.603516 15.677734 C 12.583346 15.664094 12.563279 15.650309 12.542969 15.636719 C 12.25712 15.445135 11.982537 15.239592 11.724609 15.013672 C 11.721509 15.010972 11.718044 15.008559 11.714844 15.005859 C 11.453487 14.776245 11.209729 14.527297 10.980469 14.265625 C 10.949319 14.230125 10.919202 14.194255 10.888672 14.158203 C 10.678696 13.909818 10.481461 13.652077 10.302734 13.378906 C 10.289814 13.359196 10.276412 13.340143 10.263672 13.320312 C 10.082505 13.037983 9.9224208 12.740932 9.7773438 12.435547 C 9.7493937 12.376817 9.7238156 12.317331 9.6972656 12.257812 C 9.5660386 11.963138 9.4469465 11.662083 9.3515625 11.349609 C 9.3450625 11.328469 9.3363681 11.308329 9.3300781 11.287109 C 9.2346381 10.964815 9.1659991 10.631172 9.1113281 10.292969 C 9.0985081 10.213799 9.0866619 10.134642 9.0761719 10.054688 C 9.0308831 9.7089918 9 9.358483 9 9 C 9 8.694348 9.0175413 8.3940171 9.0507812 8.0976562 C 8.7092773 8.0377183 8.359197 8 8 8 z M 11.013672 8.8125 C 11.011672 8.87577 11 8.936238 11 9 C 11 9.248781 11.019648 9.4918529 11.048828 9.7324219 C 11.057728 9.8060019 11.070521 9.8784539 11.082031 9.9511719 C 11.109961 10.126892 11.144731 10.300546 11.1875 10.470703 C 11.20522 10.541383 11.221998 10.611992 11.242188 10.681641 C 11.308087 10.90838 11.383569 11.131108 11.474609 11.345703 C 11.571209 11.573403 11.683724 11.79182 11.806641 12.003906 C 11.823061 12.032326 11.840552 12.059771 11.857422 12.087891 C 11.972984 12.279917 12.098646 12.465455 12.234375 12.642578 C 12.247655 12.659958 12.259968 12.678092 12.273438 12.695312 C 12.580001 13.086417 12.93286 13.438044 13.326172 13.742188 C 13.342332 13.754708 13.35871 13.766937 13.375 13.779297 C 13.43028 13.821147 13.492081 13.854407 13.548828 13.894531 L 13.941406 13.158203 C 13.681217 11.296243 12.570564 9.7158618 11.013672 8.8125 z M 16.425781 12.001953 A 1.4077754 1.5301004 0 0 0 15.28125 12.765625 L 14.234375 14.734375 L 13.189453 16.705078 A 1.4077754 1.5301004 0 0 0 14.40625 19 L 16.5 19 L 18.591797 19 A 1.4077754 1.5301004 0 0 0 19.810547 16.705078 L 18.763672 14.734375 L 17.71875 12.765625 A 1.4077754 1.5301004 0 0 0 16.566406 12.001953 A 1.4077754 1.5301004 0 0 0 16.425781 12.001953 z M 16 13 L 17 13 L 17 16 L 16 16 L 16 13 z M 16 17 L 17 17 L 17 18 L 16 18 L 16 17 z" id="path4"/>
</svg>
